icons/svgs/shield-outline.svg

<svg width="24" height="24" viewBox="0 0 24 24" fill="none" xmlns="http://www.w3.org/2000/svg">
<path d="M12.0002 3.95312L4.85174 6.96094C4.61736 7.07812 4.46111 7.27344 4.50017 7.46875C4.50017 11.0625 5.98455 17.2344 11.7658 19.9688C11.922 20.0469 12.0783 20.0469 12.1955 19.9688C17.9767 17.1953 19.4611 11.0625 19.5002 7.46875C19.5002 7.27344 19.3439 7.07812 19.1486 6.96094L12.0002 3.95312ZM12.508 2.11719L19.8517 5.24219C20.7111 5.63281 21.3752 6.45312 21.3752 7.46875C21.3361 11.375 19.7345 18.4453 13.0158 21.6875C12.3517 22 11.6095 22 10.9455 21.6875C4.22674 18.4453 2.62517 11.375 2.62517 7.46875C2.58611 6.45312 3.25017 5.63281 4.10955 5.24219L11.4533 2.11719C11.6095 2.03906 11.8049 2 12.0002 2C12.1564 2 12.3517 2.03906 12.508 2.11719Z" fill="black"/>
</svg>

<svg xmlns="http://www.w3.org/2000/svg" width="24" height="24" fill="currentColor" class="icon-shield-outline" viewBox="0 0 24 24">
  <mask id="a" width="20" height="20" x="2" y="2" maskUnits="userSpaceOnUse" style="mask-type:alpha">
    <path d="M12 3.953 4.852 6.961c-.235.117-.39.312-.352.508 0 3.593 1.485 9.765 7.266 12.5.156.078.312.078.43 0 5.78-2.774 7.265-8.907 7.304-12.5 0-.196-.156-.39-.351-.508zm.508-1.836 7.344 3.125c.86.39 1.523 1.211 1.523 2.227-.039 3.906-1.64 10.976-8.36 14.218a2.4 2.4 0 0 1-2.07 0c-6.718-3.242-8.32-10.312-8.32-14.218-.039-1.016.625-1.836 1.485-2.227l7.343-3.125a1.25 1.25 0 0 1 1.055 0"/>
  </mask>
  <g mask="url(#a)">
    <path d="M0 0h24v24H0z"/>
  </g>
</svg>
